src/16/mimetypes/application-x-kexi-connectiondata.svg

<svg width="16" xmlns="http://www.w3.org/2000/svg" height="16"><path fill="#8e44ad" d="M8 2a6 2 0 0 0-6 2v4a6 2 0 0 0 5 1.97V12H5v-1H2v3h3v-1h6v1h3v-3h-3v1H9V9.971A6 2 0 0 0 14 8V4a6 2 0 0 0-6-2m0 1a5 1 0 0 1 5 1 5 1 0 0 1-5 1 5 1 0 0 1-5-1 5 1 0 0 1 5-1M3 5.102A6 2 0 0 0 8 6a6 2 0 0 0 5-.896V8a5 1 0 0 1-5 1 5 1 0 0 1-5-1V6.896zM3 12h1v1H3zm9 0h1v1h-1z"/></svg>

<svg width="16" xmlns="http://www.w3.org/2000/svg" height="16" viewBox="0 0 16 16">
 <path fill="#8e44ad" d="M8 2A6 2 0 0 0 2 4V8A6 2 0 0 0 7 9.970703V12H5V11H2V14H5V13H11V14H14V11H11V12H9V9.971A6 2 0 0 0 14 8V4A6 2 0 0 0 8 2M8 3A5 1 0 0 1 13 4 5 1 0 0 1 8 5 5 1 0 0 1 3 4 5 1 0 0 1 8 3M3 5.101563A6 2 0 0 0 8 6 6 2 0 0 0 13 5.103516V8A5 1 0 0 1 8 9 5 1 0 0 1 3 8V6.896zM3 12H4V13H3zM12 12H13V13H12z"/>
</svg>
